images_sukapura_svg/cmd/32/trackchangesbar.svg

<svg viewBox="0 0 32 32" xmlns="http://www.w3.org/2000/svg" xmlns:xlink="http://www.w3.org/1999/xlink"><linearGradient id="a" gradientUnits="userSpaceOnUse" x1="20" x2="23" y1="9" y2="6"><stop offset="0" stop-color="#fff"/><stop offset=".77967989" stop-color="#f1f1f1"/><stop offset="1" stop-color="#d5d5d5"/></linearGradient><radialGradient id="b" cx="22" cy="9.076923" gradientTransform="matrix(1.3 .00000001 -.00000002 1.5 -6.6 -6.615385)" gradientUnits="userSpaceOnUse" r="10"><stop offset="0" stop-color="#d7d7d7"/><stop offset=".29999998" stop-color="#f7f7f7"/><stop offset="1" stop-color="#fff"/></radialGradient><path d="m6 3v26h20v-14.810547-4.189453l-7-7zm19.998047 23.066406.001953 2.933594h-.002z" fill="url(#b)"/><path d="m5.9980469 2c-.554 0-1 .446-1 1v26c0 .554.446 1 1 1h7.0019531.482422 8.605469 1.912109 1.998047c.554 0 .892483-.456533 1-1v-3h.001953v-13h-.001953v-4.6152344l-6.507813-6.3847656zm0 1h13.0000001v6c0 .6726441.491378 1 1 1h6v4.189453h.001953v11.810547h.064453l-.066406.066406v2.933594h-1.998047-.917969-9.353515-.728516-7.0019531z" fill="#98989d"/><g fill="#eac282" stroke-width=".857112" transform="matrix(1.1667513 0 0 1.1666667 2.664099 2.670651)"><path d="m11.437572 19.627857-1.09644 4.02504 3.951909-1.171525c1.653046-.339535-2.065034-3.99245-2.855469-2.853515z" fill="#a2a2a7" stroke="#848489"/><path d="m20.419922 11c-.189562 0-.378184.07172-.523438.216797l-1.673828 1.669922 2.847656 2.849609 1.710938-1.638672c.290506-.290127.290506-.756747 0-1.046875l-1.835938-1.833984c-.145254-.145064-.335828-.216797-.52539-.216797z" fill="#e68497" stroke="#b6496c"/><path d="m19.288937 13.155429 1.143664-1.12071 1.850278 1.787531" fill="none" stroke="#f398b3"/><path d="m17.603733 13.488055-5.652561 5.646711 2.855469 2.853515 5.633029-5.668195z" fill="#fc0" stroke="#c89e00"/><path d="m19.761836 15.247137-1.100691-1.177408-6.1837 6.223955 1.082595 1.146887z" fill="#ffe014"/></g><rect fill="#98989d" height="1" ry=".5" width="5" x="8" y="10"/><rect fill="#98989d" height="1" ry=".5" width="9" x="8" y="14"/><g fill="#ff9f0a"><rect height="1" ry=".5" width="5" x="19" y="14"/><rect height="1" ry=".5" width="7" x="8" y="18"/><path d="m8.5 26c-.277 0-.5.223-.5.5s.223.5.5.5h5.720703l.246094-1z"/></g><g fill="#98989d"><rect height="1" ry=".474576" width="4" x="8" y="22"/><path d="m14.474609 22c-.262915 0-.474609.211694-.474609.474609v.050782c0 .262915.211694.474609.474609.474609h2.296875l.953125-.953125c-.060895-.028313-.127406-.046875-.199218-.046875z"/><rect height="1" ry=".474576" width="4" x="17" y="18"/><rect height="1" ry=".5" width="2" x="15" y="10"/></g><path d="m20 9h6l-6-6z" fill="url(#a)" fill-rule="evenodd"/></svg>

<?xml version="1.0" encoding="UTF-8" standalone="no"?>
<svg
   xmlns:dc="http://purl.org/dc/elements/1.1/"
   xmlns:cc="http://creativecommons.org/ns#"
   xmlns:rdf="http://www.w3.org/1999/02/22-rdf-syntax-ns#"
   xmlns:svg="http://www.w3.org/2000/svg"
   xmlns="http://www.w3.org/2000/svg"
   xmlns:sodipodi="http://sodipodi.sourceforge.net/DTD/sodipodi-0.dtd"
   xmlns:inkscape="http://www.inkscape.org/namespaces/inkscape"
   viewBox="0 0 32 32"
   version="1.1"
   id="svg36"
   sodipodi:docname="trackchangesbar.svg"
   inkscape:version="0.92.3 (unknown)"
   inkscape:export-filename="/home/rizmut/Dokumen/Rizmut/Github/libreoffice-style-sukapura/images_sukapura/cmd/32/trackchangesbar.png"
   inkscape:export-xdpi="96"
   inkscape:export-ydpi="96">
  <metadata
     id="metadata42">
    <rdf:RDF>
      <cc:Work
         rdf:about="">
        <dc:format>image/svg+xml</dc:format>
        <dc:type
           rdf:resource="http://purl.org/dc/dcmitype/StillImage" />
        <dc:title />
      </cc:Work>
    </rdf:RDF>
  </metadata>
  <defs
     id="defs40">
    <linearGradient
       id="b"
       gradientUnits="userSpaceOnUse"
       x1="20"
       x2="23"
       y1="9"
       y2="6">
      <stop
         offset="0"
         stop-color="#fff"
         id="stop1004" />
      <stop
         offset=".77967989"
         stop-color="#f1f1f1"
         id="stop1006" />
      <stop
         offset="1"
         stop-color="#d5d5d5"
         id="stop1008" />
    </linearGradient>
    <radialGradient
       id="a"
       cx="22"
       cy="9.0769234"
       gradientTransform="matrix(1.3,1e-8,-2e-8,1.5,-6.6,-6.615385)"
       gradientUnits="userSpaceOnUse"
       r="10">
      <stop
         offset="0"
         stop-color="#d7d7d7"
         id="stop997" />
      <stop
         offset=".29999998"
         stop-color="#f7f7f7"
         id="stop999" />
      <stop
         offset="1"
         stop-color="#fff"
         id="stop1001" />
    </radialGradient>
  </defs>
  <sodipodi:namedview
     pagecolor="#ffffff"
     bordercolor="#666666"
     borderopacity="1"
     objecttolerance="10"
     gridtolerance="10"
     guidetolerance="10"
     inkscape:pageopacity="0"
     inkscape:pageshadow="2"
     inkscape:window-width="1366"
     inkscape:window-height="699"
     id="namedview38"
     showgrid="true"
     inkscape:zoom="14.75"
     inkscape:cx="10.056369"
     inkscape:cy="10.346176"
     inkscape:window-x="0"
     inkscape:window-y="0"
     inkscape:window-maximized="1"
     inkscape:current-layer="svg36"
     inkscape:snap-global="false">
    <inkscape:grid
       type="xygrid"
       id="grid1653" />
  </sodipodi:namedview>
  <path
     style="fill:url(#a)"
     d="M 6,3 V 29 H 26 V 14.189453 10 L 19,3 Z M 25.998047,26.066406 26,29 h -0.002 z"
     id="path1011"
     inkscape:connector-curvature="0"
     sodipodi:nodetypes="ccccccccccc" />
  <path
     style="fill:#98989d;fill-opacity:1"
     d="M 5.9980469 2 C 5.4440469 2 4.9980469 2.446 4.9980469 3 L 4.9980469 29 C 4.9980469 29.554 5.4440469 30 5.9980469 30 L 13 30 L 13.482422 30 L 22.087891 30 L 24 30 L 25.998047 30 C 26.552047 30 26.89053 29.543467 26.998047 29 L 26.998047 26 L 27 26 L 27 13 L 26.998047 13 L 26.998047 8.3847656 L 20.490234 2 L 5.9980469 2 z M 5.9980469 3 L 18.998047 3 L 18.998047 9 C 18.998047 9.6726441 19.489425 10 19.998047 10 L 25.998047 10 L 25.998047 14.189453 C 25.998047 14.189453 26 14.189453 26 14.189453 L 26 26 L 26.064453 26 L 25.998047 26.066406 L 25.998047 29 L 24 29 L 23.082031 29 L 13.728516 29 L 13 29 L 5.9980469 29 L 5.9980469 3 z "
     id="path4" />
  <g
     transform="matrix(1.1667513,0,0,1.1666667,2.6640992,2.6706514)"
     id="g12"
     style="fill:#eac282">
    <path
       d="m 11.437572,19.627857 -1.09644,4.02504 3.951909,-1.171525 c 1.653046,-0.339535 -2.065034,-3.99245 -2.855469,-2.853515 z"
       id="path8"
       style="fill:#a2a2a7;fill-opacity:1;stroke:#848489;stroke-width:0.85711175;stroke-miterlimit:4;stroke-dasharray:none;stroke-opacity:1"
       inkscape:connector-curvature="0"
       sodipodi:nodetypes="cccc" />
    <path
       d="m 20.419922,11 c -0.189562,0 -0.378184,0.07172 -0.523438,0.216797 l -1.673828,1.669922 2.847656,2.849609 1.710938,-1.638672 c 0.290506,-0.290127 0.290506,-0.756747 0,-1.046875 L 20.945312,11.216797 C 20.800058,11.071733 20.609484,11 20.419922,11 Z"
       id="path10"
       style="fill:#e68497;fill-opacity:1;stroke:#b6496c;stroke-width:0.85711175;stroke-miterlimit:4;stroke-dasharray:none;stroke-opacity:1"
       inkscape:connector-curvature="0" />
    <path
       inkscape:connector-curvature="0"
       style="fill:none;stroke:#f398b3;stroke-width:0.85711175"
       d="m 19.288937,13.155429 1.143664,-1.12071 1.850278,1.787531"
       id="path32"
       sodipodi:nodetypes="ccc" />
    <path
       style="fill:#ffcc00;fill-opacity:1;stroke:#c89e00;stroke-width:0.85711175;stroke-miterlimit:4;stroke-dasharray:none;stroke-opacity:1"
       id="path874"
       d="m 17.603733,13.488055 -5.652561,5.646711 2.855469,2.853515 5.633029,-5.668195 z"
       inkscape:connector-curvature="0"
       sodipodi:nodetypes="ccccc" />
    <path
       inkscape:connector-curvature="0"
       style="fill:#ffe014;stroke-width:0.85711175"
       d="m 19.761836,15.247137 -1.100691,-1.177408 -6.1837,6.223955 1.082595,1.146887 z"
       id="path14"
       sodipodi:nodetypes="ccccc" />
  </g>
  <rect
     fill="#808080"
     height="1"
     ry=".5"
     width="5"
     x="8"
     y="10"
     id="rect14"
     style="fill:#98989d;fill-opacity:1" />
  <rect
     fill="#808080"
     height="1"
     ry=".5"
     width="9"
     x="8"
     y="14"
     id="rect16"
     style="fill:#98989d;fill-opacity:1" />
  <g
     fill="#d65532"
     id="g24"
     style="fill:#ff9f0a;fill-opacity:1">
    <rect
       height="1"
       ry=".5"
       width="5"
       x="19"
       y="14"
       id="rect18"
       style="fill:#ff9f0a;fill-opacity:1" />
    <rect
       height="1"
       ry=".5"
       width="7"
       x="8"
       y="18"
       id="rect20"
       style="fill:#ff9f0a;fill-opacity:1" />
    <path
       style="fill:#ff9f0a;fill-opacity:1"
       d="M 8.5 26 C 8.223 26 8 26.223 8 26.5 C 8 26.777 8.223 27 8.5 27 L 14.220703 27 L 14.466797 26 L 8.5 26 z "
       id="rect22" />
  </g>
  <g
     fill="#808080"
     id="g34">
    <rect
       height="1"
       ry=".474576"
       width="4"
       x="8"
       y="22"
       id="rect26"
       style="fill:#98989d;fill-opacity:1" />
    <path
       style="fill:#98989d;fill-opacity:1"
       d="M 14.474609 22 C 14.211694 22 14 22.211694 14 22.474609 L 14 22.525391 C 14 22.788306 14.211694 23 14.474609 23 L 16.771484 23 L 17.724609 22.046875 C 17.663714 22.018562 17.597203 22 17.525391 22 L 14.474609 22 z "
       id="rect28" />
    <rect
       height="1"
       ry=".474576"
       width="4"
       x="17"
       y="18"
       id="rect30"
       style="fill:#98989d;fill-opacity:1" />
    <rect
       height="1"
       ry=".5"
       width="2"
       x="15"
       y="10"
       id="rect32"
       style="fill:#98989d;fill-opacity:1" />
  </g>
  <path
     inkscape:connector-curvature="0"
     style="fill:url(#b);fill-rule:evenodd"
     d="m 20,9 h 6 L 20,3 Z"
     id="path1015" />
</svg>
